X:1
T:Amante innamorato-Pargoletta vezzosa
T:Giovanni Stefani
T:Source : Affetti amorosi-Canzonette ad une voce sola---Venetia---A.Vincenti---1621. Editor : André Vierendeels (14/11/15). 
T:Notes : Original clefs : C4, F4 Editorial accidentals above the staff Dotted brackets indicate black notes Note values have been halved in 3-beat measures Alfabetto et intavolatura per chitarra Spagnola Terza impressione (first ptint 1618) "Di Pargoletta ritrosa"
T:Pargoletta vezzosa-Amante innamorato
C:Giovanni Stefani
%%score 1 { ( 2 3 ) | 4 }
L:1/8
Q:1/4=80
M:4/4
K:C
V:1 treble-8 nm="Tenor" snm="T"
V:2 treble nm="BC" snm="BC"
V:3 treble 
V:4 bass 
V:1
 z2 Bc d2 cd | B4 B2 cd | e2 de ^c4 |"^-natural" ^c2 dc BBcB | AAff e2 d2 | e3 d dABc | %6
w: Par- go- let- ta vez-|zo- sa, par- go-|let- t'a- mo- ro-|sa, par- go- let- ta che d'a-|mo- re, dol- ce stral non|sen- t'al co- re, dol- ce|
w: Se di me non ti|ca- le, e ti|pia- ce'il mio ma-|le, par- go- let- ta che ri-|tro- sa, mi ti mo- stri'e|dis- de- gno- sa, mi- ti|
w: Tu mi ve- di lan-|gui- re, tu mi|ve- di mo- ri-|re, par- go- let- ta'e pur con-|sen- ti, dar- m'o- gn'hor pe-|n'e tor- men- ti, dar- m'o-|
w: Voi begl' oc- chi lu-|cen- ti, voi begl'|oc- chi ri- den-|ti, deh mi- ra- te men- tr'io|mo- ro, che mo- ren- do'an-|co v'a- do- ro, che mo-|
"^-natural" d2 c2 c3 B | c4 c2 ed | ^ccdc BBcd | c2 B2 A3 G | G4 G4 ::[M:3/4] B2 c2 d2 | B2 A2 B2 | %13
w: stral non sen- t'al|co- re, par- go-|let- ta che d'a- mo- re, dol- ce|stral non sen- t'al|co- re.|S'hai piu de-|si- re di|
w: mio stri'e dis- de-|gno- sa, par- go-|let- ta che ri- tro- sa, mi- ti|mo- stri'e dis- de-|gno- sa.|E s'hai con-|ten- to ch'io|
w: gn'hor pe- n'e tor-|men- ti, par- go-|let- ta'e pur con- sen- ti, dar- m'o-|gn'hor pe- n'e tor-|men- ti.|Ma s'el tuo|co- re non|
w: ren- do'an- co v'a-|do- ro, deh mi-|ra- te men- tr'io mo- ro, che mo-|ren- do'an- co v'a-|do- ro.|E s'el- la|bra- ma d'uc-|
 c2 d2 c2 | B4 B2 | c2 d2 e2 | f2 f2 e2 | d4 c2 | c4 c2 |[M:4/4] z2 d2 d2 d2 | d4 d2 d2 | c6 c2 | %22
w: sem- pre gio-|i- re,|col pren- der|gio- co del|mio gran|fo- co,|al- men ch'io|mi- ri quei|dol- ci|
w: vi- va'in tor-|men- to,|ne per- ch'io|pe- ra ti|fai men|fe- ra,|al- men- ch'io|" _ _|" _|
w: sen- te d'a-|mo- re,|ne di pie-|ta- de sa|tua bel-|ta- de,|al- men- ch'io|" _ _|" _|
w: ci- der chi|l'a- man|ne vuol sen-|ti- re chi|fa mo-|ri- re,|al- men ch'io|mi- ri quei|vo- stri|
 BBBc decd | BBcd efde | ^ccdc BBcB | AAff e2 d2 | e3 d dABc |"^-natural" d2 c2 c3 B | c4 c2 ed | %29
w: gi- ri, non si nie- ghi per mer-|ce- de'al mio a- mor' al- la mia|fe- de, par- go- let- ta che d'a-|mo- re, dol- ce stral non|sen- t'al co- re, dol- ce|stral non sen- t'al|co- re, par- go-|
w: " _ _ _ _ _ _ _|" _ _ _ _ _ _ _|" _ _ _ _ _ _ _|" _ _ _ _ _|" _ _ _ _ _|" _ _ _|" _ _ _|
w: " _ _ _ _ _ _ _|" _ _ _ _ _ _ _|" _ _ _ _ _ _ _|" _ _ _ _ _|" _ _ _ _ _|" _ _ _|" _ _ _|
w: gi- ri, non ne- ga- te per mer-|ce- de'al mio a- mor, al- la mia|fe- de, O begl' oc- chi che da-|mo- re, dol- ce vi- ta|da- te'a'un co- re, dol- ce|vi- ta da- te'a'un|co- re,- O begl'|
 ^ccdc BBcd |"^-natural" c2 B2 A3 G | G4 G4 :| %32
w: let- ta che d'a- mo- re, dol- ce|stral non sen- t'al|co- re.|
w: " _ _ _ _ _ _ _|" _ _ _|" _|
w: " _ _ _ _ _ _ _|" _ _ _|" _|
w: oc- chi che d'a- mo- re, dol- ce|vi- ta da- te'a'un|co- re.|
V:2
 B6 A2 | G8 | c4 A4- | A2 A2 B2 c2 | c2 d2 ^c2 A2 | B2 E2 A2 _B2 | d2 A2 c2 G2 | c4 G4 | A2 A2 B4 | %9
 A2 G2 A2 ^F2 | G8 ::[M:3/4] B2 A4 | B6 | A6 | G6 | B2 d2 G2 | c2 A4 | B4 c2 | e6 |[M:4/4] d8 | %20
 _B8 | c8 | B4 c2 A2 | B4 c2 d2 | A2 A2 B2 c2 | c2 d2 ^c2 A2 | B2 A2 A2 _B2 | d2 A2 c2 d2 | c4 A4 | %29
 A4 B4 | A2 G2 G2 ^F2 | G8 :| %32
V:3
 D6 D2 | D8 | E2 G2 E4- | E2 D2 D2 G2 | A2 A2 E2 D2 | D2 C2 F2 G2 | G2 F2 G2 D2 | E4 E4 | %8
 E2 D2 D4 | E2 D2 E2 D2 | B,8 ::[M:3/4] D2 E4 | D6 | D6 | D6 | E2 G2 G2 | A2 D4 | G4 G2 | G6 | %19
[M:4/4] F2 G2 A2 G2 | F2 G2 D2 E2 | F8 | D4 E2 D2 | D4 E2 G2 | E2 D2 G2 G2 | A2 F2 E2 D2 | %26
 D2 C2 ^F2 G2 | G2 F2 E2 D2 | E4 E4 | E2 D2 D4 | E2 D2 E2 D2 | B,8 :| %32
V:4
"^-natural" G,,4 G,2 ^F,2 | G,4 G,4 |"^b" C2 B,2 A,4 | A,2 ^F,2 G,2 E,2 | F,2 D,2 A,2 F,2 | %5
 G,2 A,2 D,2 C,2 | _B,,2 A,,2 F,,2 G,,2 | C,4 C,2 C2 | A,2 ^F,2 G,2 G,,2 | A,,2 B,,2 C,2 D,2 | %10
 G,,8 ::[M:3/4] G,2 A,4 | G,6 | ^F,6 | G,6 | C2 B,4 | A,2 F,4 | G,6 | C,6 |[M:4/4] _B,,8 | _B,,8 | %21
 A,,8 | G,,4 G,2 ^F,2 | G,4 C2 B,2 |"^b" A,2 ^F,2 G,2 E,2 | F,2 D,2 A,2 F,2 | %26
"^-natural""^-natural" G,2 A,2 D,2 C,2 | _B,,2 A,,2 F,,2 G,,2 | C,4 C,2 C2 | A,2 ^F,2 G,2 G,,2 | %30
 A,,2 B,,2 C,2 D,2 | G,,8 :| %32

